X:234
T:Laugrens polska.
R:polska
N:L. var far till klockaren O. Laugren i Alva;
S:uppt. efter O. Laugren ock »Florsen».
O:Gotland, Burs, Alva
M:3/4
L:1/16
K:Gm
Lg4 Ld3c B2AB|G3A BAG^F GDB,G,|g3a b2bg a2a^f|
g2g2 ^fgaf d4|Lg4 Ld3c B2AB|G3A BAG^F GDB,G,|
g3a b2bg a2a^f|g2g2 ^fgaf g4::B4 BABc d2dc|
B2AG ^FGF=E D2D2|B4 BABc d2dc|B2AG ^FGF=E D4|
G3g g^fga g2dc|BAG^F ^F4 G4:|

